X: 22508
T: Lady Elizabeth Cole's Reel
R: jig
M: 6/8
K: Gminor
^f|:g2d e2c|d2B c2A|B2G A2G|^FAd D2^f|
gdg ece|dBd c2A|Bcd cBA|1 G3 G2^f:|2 G3 G2c||
|:dBG dBG|ede c2B|cAF cAF|dcd B2A|
BGE BGE|cBc A2G|^FGA DdA|1 BGG G2c:|2 BGG G2^f||

